!!!!SEGMENT:41Mysterioso_c.krn
!!!OTL: Mysterioso（怪異）
!!!OPR:Eiga Banso Kyokusyu,jidai-geki,zenpen
!!!YOY:1929
!!!ONB:Mysterioso,Shinobikomi,Seisan
**kern
*clefG2
*c:
*M4/4
*met(c)
=1
2c
(16qqc/LL
16qqd/JJ
8e-)
8r
4r
=2
2c
(16qqc/LL
16qqd/JJ
8e-)
8r
4r
=3
8.cL
16e-k
8.g
16e-Jk
8dL
8r
8cJ
8r
=4
8d
8r
4r
8gg
8r
4r
=5
2F
(16qqF/LL
16qqG/JJ
8A-)
8r
4r
=6
2F
(16qqF/LL
16qqG/JJ
8A-)
8r
4r
=7
8.GL
16Bnk
8.d
16BJk
8GL
8r
8BJ
8r
=8
8c
8r
4r
8ccc
8r
4r
=9
4e-
4d
4c
4A-
=10
8G
8r
4r
4r
8.FL
16GJk
=11
8.A-L
16GJk
8F
8r
4r
8.GL
16BnJk
=12
8.cL
16dJk
8e-
8r
4r
4c
=13
8f
8r
4r
8e-
8r
4r
=14
8dL
8r
8e-J
8r
8c
8r
4r
=15
4A-
8.GL
16FJk
8G
8r
8Bn
8r
=16
2.c
4r
==
*-
!!!ENC: Yukiko Yoden
!!!END: 2023/06/11
